static/img/menus/ico-mini-screen.svg

<svg xmlns="http://www.w3.org/2000/svg" width="20" height="20" fill="none" viewBox="0 0 20 20"><path stroke="currentColor" d="M4 8.5h3.5V5m0 3.5L1 2m15 9.5h-3.5V15m0-3.5L19 18M14 2.5h3A1.5 1.5 0 0 1 18.5 4v3M6 17.5H3A1.5 1.5 0 0 1 1.5 16v-3"/></svg>

<svg width="20" height="20" viewBox="0 0 20 20" fill="none" xmlns="http://www.w3.org/2000/svg">
<path d="M4 8.5H7.5V5M7.5 8.5L1 2M16 11.5H12.5V15M12.5 11.5L19 18M14 2.5H17C17.8284 2.5 18.5 3.17157 18.5 4V7M6 17.5H3C2.17157 17.5 1.5 16.8284 1.5 16V13" stroke="currentColor"/>
</svg>
